X: 27994
T: Moving Bog, The
R: reel
M: 4/4
K: Gmajor
BGAF G2 AF|DEFG AGGF|DGGF GABc|d2 eg fdcA|
BGAF G2 AF|DEFG AGGF|DGGF GABg|fdcA BG G2||
g2 ag fgag|fdde fdcA|Gggf g2 fg|agfg agga|
bgaf gbag|fdde f2 fg|afge (3fga ge|dcde fdcA||

